!!!OTL@@FUR: Me agne Jacume
!!!OTL@IT: Mia zia Giacoma
!!!OTL@EN: My Aunt Jamie
**kern
*clefG2
*k[f#c#]
*D:
*M3/4
*MM110
*>[A,B,C,D]
*>A
8a
8a
8a
=1
*>B
8.a
16g
8f#
8e
8d
8c#
=2
4d
8f#
8f#
8e
8d
=3
8.c#
16e
8a
8g
8f#
8e
=4||
*>C
4d
8r
8a
8a
8a
=5:|!
*>D
4d
8r
8a
8a
8a
=6
4a
8r
8a
8a
8a
=7
[2.dd
=8
2.dd_
=9
4dd]
4r
4r
==
*-
!!!ARE: Friuli
!!!ENC: Kelly Leistikow
!!!END: 2002/03/07
!!!ref: @{OTL@@FUR}/@{OTL@EN}
